X: 8
T: Teetotaller's, The
Z: shanachie
S: https://thesession.org/tunes/114#setting43532
R: reel
M: 4/4
L: 1/8
K: Gmaj
G2GF GABc|d2ge dBAc|BEED EFGA|BGAF GFEF|
DGGF GABc|d2ge dBAc|BEED EFGA|BGAF G2GE|
DGGF GABc|d2ge dBAc|BEED EFGA|BGAF GFEF|
DGGF GABc|d2ge dBAc|BEED EFGA|BGAF G2GA||
|:Beed e2ef|geaf gfed|Add^c d2de|fgaf gfed|
e2ed e2ef|geaf gfed|BEED EFGA|1 BGAF G2GA:|2 BGAF GFED||

